static/assets/images/rw-logo.svg

<svg viewBox="0 0 341 195" xmlns="http://www.w3.org/2000/svg" fill-rule="evenodd" clip-rule="evenodd" stroke-linejoin="round" stroke-miterlimit="1.414"><path d="M122.92 49.917c0-7.527-5.376-13.71-15.053-13.71-11.56 0-21.236 9.14-36.827 35.215h-1.075V36.476l-38.172 8.871-.538 7.258 11.022 1.613c6.989 1.881 8.333 3.494 8.333 15.86v76.074c0 2.688-1.882 3.763-6.72 4.032l-10.753 1.075-.806 9.14h59.945l-.806-9.14-14.248-1.075c-6.182-.269-7.257-1.613-7.257-3.763V85.938c6.72-13.44 19.085-25.806 27.418-30.914 2.42 4.57 7.258 8.602 12.903 8.602 8.065 0 12.635-6.182 12.635-13.709zm201.342-9.409h-48.118l.807 8.871 8.333 1.344c8.333 1.075 8.602 5.376 5.914 15.054l-22.58 73.923-29.032-81.18c-1.613-4.84.806-7.259 5.376-7.797l8.602-1.344.806-8.87H199.8l.808 8.87 8.333 1.882c6.183.806 8.064 2.15 10.215 7.795l4.032 11.291-26.075 68.816-27.15-80.644c-1.613-4.57.806-7.258 5.107-7.796l8.87-1.344.808-8.87h-53.763l.807 9.14 8.064 1.343c5.645.806 7.527 2.42 9.408 8.064l35.484 103.225h13.172l30.913-78.225 29.3 78.225h13.173l31.182-96.773c4.032-11.828 5.914-13.71 12.634-14.785l8.333-1.344.807-8.87z"/></svg>

<?xml version="1.0" encoding="UTF-8" standalone="no"?>
<!DOCTYPE svg PUBLIC "-//W3C//DTD SVG 1.1//EN" "http://www.w3.org/Graphics/SVG/1.1/DTD/svg11.dtd">
<svg width="100%" height="100%" viewBox="0 0 341 195" version="1.1" xmlns="http://www.w3.org/2000/svg" xmlns:xlink="http://www.w3.org/1999/xlink" xml:space="preserve" style="fill-rule:evenodd;clip-rule:evenodd;stroke-linejoin:round;stroke-miterlimit:1.41421;">
    <g transform="matrix(1.16106,0,0,1.16106,-36.0046,-19.1574)">
        <path d="M122.92,49.917C122.92,42.39 117.544,36.207 107.867,36.207C96.307,36.207 86.631,45.347 71.04,71.422L69.965,71.422L69.965,36.476L31.793,45.347L31.255,52.605L42.277,54.218C49.266,56.099 50.61,57.712 50.61,70.078L50.61,146.152C50.61,148.84 48.728,149.915 43.89,150.184L33.137,151.259L32.331,160.399L92.276,160.399L91.47,151.259L77.222,150.184C71.04,149.915 69.965,148.571 69.965,146.421L69.965,85.938C76.685,72.498 89.05,60.132 97.383,55.024C99.803,59.594 104.641,63.626 110.286,63.626C118.351,63.626 122.921,57.444 122.921,49.917L122.92,49.917ZM324.262,40.508L276.144,40.508L276.951,49.379L285.284,50.723C293.617,51.798 293.886,56.099 291.198,65.777L268.618,139.7L239.586,58.52C237.973,53.68 240.392,51.261 244.962,50.723L253.564,49.379L254.37,40.509L199.8,40.509L200.608,49.379L208.941,51.261C215.124,52.067 217.005,53.411 219.156,59.056L223.188,70.347L197.113,139.163L169.963,58.519C168.35,53.949 170.769,51.261 175.07,50.723L183.94,49.379L184.748,40.509L130.985,40.509L131.792,49.649L139.856,50.992C145.501,51.798 147.383,53.412 149.264,59.056L184.748,162.281L197.92,162.281L228.833,84.056L258.133,162.281L271.306,162.281L302.488,65.508C306.52,53.68 308.402,51.798 315.122,50.723L323.455,49.379L324.262,40.509L324.262,40.508Z" style="fill:black;"/>
    </g>
</svg>
